X:1
T:Frederick, 11.11.11.11
T:Frederick, 11.11.11.11
T:George Kingsley, 1833
T:Public Domain Courtesy of the Cyber Hymnal™
C:George Kingsley, 1833
Z:Public Domain
Z:Courtesy of the Cyber Hymnal™
%%score ( 1 2 ) ( 3 4 )
L:1/8
Q:1/4=110
M:3/4
K:F
V:1 treble 
V:2 treble 
V:3 bass 
V:4 bass 
V:1
 CC | [CF]2 [CF]2 [EG]2 | [FA]2 !fermata![Fd]2 (cA) | [EG]3 [DF] [EG]2 | [FA]4 C2 | %5
 [CF]2 [CF]2 [EG]2 | (A2 d2) [Fc][FA] | [EG]2 [Ge]2 [Fd]2 | [Ec]4 [Fc][Fc] | [Ff]3 [Fe] [Fd]2 | %10
 [Fc]2 [FA]2 [Ac]2 | [Ff]3 [Fe] [Fd]2 | [Fc]4 CC | [CF]2 [CF]2 [EG]2 | (A2 !fermata!d2) [Fc][FA] | %15
 [EG]3 F [CG]2 | [CF]4 |] %17
V:2
 CC | x6 | x4 F2 | x6 | x4 C2 | x6 | F4 x2 | x6 | x6 | x6 | x6 | x6 | x4 CC | x6 | F4 x2 | %15
 x3 F x2 | x4 |] %17
V:3
 [F,A,][F,A,] | [F,A,]2 [A,,C]2 [C,C]2 | [F,C]2 !fermata![B,,B,]2 (A,C) | [C,C]3 [C,C] [C,C]2 | %4
 [F,C]4 [F,A,]2 | [F,A,]2 [A,,C]2 [C,C]2 | ([F,C]2 [B,,B,]2) [F,A,][F,C] | [G,C]2 [G,C]2 [G,=B,]2 | %8
 [C,C]4 [F,A,][F,A,] | [B,,D]3 [B,,C] [B,,B,]2 | [F,A,]2 [F,C]2 [F,A,]2 | [B,,D]3 [B,,C] [B,,B,]2 | %12
 [F,A,]4 [F,A,][F,A,] | [F,A,]2 [A,,C]2 [C,C]2 | ([F,C]2 [B,,B,]2) [F,A,][F,C] | %15
 [C,B,]3 [C,A,] [C,B,]2 | [F,A,]4 |] %17
V:4
 x2 | x6 | x4 F,2 | x6 | x6 | x6 | x6 | x6 | x6 | x6 | x6 | x6 | x6 | x6 | x6 | x6 | x4 |] %17

